svg/furkot/public-domain/palace.svg

<svg viewBox="0 0 512 512" xmlns="http://www.w3.org/2000/svg"><path d="m337.27 313.498h42.142v-29.947l-1.817-7.322-3.052-6.728-4.894-6.103-4.89-4.894-6.103-4.276h-.625l-5.478 4.276-4.91 4.894-4.874 6.103-3.052 6.728-1.838 7.322-.604 7.337v22.61m174.725 179.599h-512v-25.651l42.757-34.207v-299.356h42.163v-118.523h59.874v67.809h51.338v-67.809h59.858v178.995h42.772v-76.974h59.264v76.974h51.338v-76.974h59.874v315.858l42.762 34.207zm-427.689-251.694-1.838 1.828-2.432 1.223-3.052 1.234-3.072-1.234-2.447-1.223-1.818-1.828-1.233-3.052v-4.28l1.233-3.057 2.448-1.223 3.051-1.214h3.052l2.447 1.214 2.448 1.848 1.213 1.203h30.561v-31.15l-1.838-1.828-1.213-3.051-.625-2.453.625-3.051 1.213-2.437 1.838-1.828 3.052-1.848h1.229l3.64 1.223 2.463 1.229 1.817 1.828.61 3.676v2.427l-.61 2.452-2.447 2.427-1.234 1.234v31.15h31.171l1.838-2.437 3.051-1.828h5.499l2.447 1.828 3.677 4.89v1.822l-.625 3.062-1.838 2.448-2.448 1.827-3.051 1.234h-2.427l-3.051-1.234-1.839-2.447-1.228-.609h-31.171v30.551l2.463 2.432 1.823 1.848v6.712l-1.823 1.828-2.463 1.828-2.427 1.234h-4.894l-1.839-1.838-2.426-1.818-.625-3.067v-3.041l.625-2.452 2.426-2.432.625-1.224v-30.551h-30.551zm.609 183.265h68.444v-43.361l-.609-9.17-2.447-9.764-3.052-9.165-4.285-8.56-6.124-7.936-6.712-6.713-7.337-6.113-3.64-1.848h.589l-7.926 5.509-7.337 6.712-6.728 7.936-4.889 7.962-3.661 8.545-2.448 9.79-1.228 9.763-.61 3.057z"/></svg>

<svg xmlns="http://www.w3.org/2000/svg" viewBox="0 0 512 512"><path d="M337.27 313.498H379.412V283.551L377.595 276.229 374.543 269.501 369.649 263.398 364.759 258.504 358.656 254.228H358.031L352.553 258.504 347.643 263.398 342.769 269.501 339.717 276.229 337.879 283.551 337.275 290.888V313.498M512 493.097H0V467.446L42.757 433.239V133.883H84.92V15.36H144.794V83.169H196.132V15.36H255.99V194.355H298.762V117.381H358.026V194.355H409.364V117.381H469.238V433.239L512 467.446V493.097ZM84.311 241.403L82.473 243.231 80.041 244.454 76.989 245.688 73.917 244.454 71.47 243.231 69.652 241.403 68.419 238.351V234.071L69.652 231.014 72.1 229.791 75.151 228.577H78.203L80.65 229.791 83.098 231.639 84.311 232.842H114.872V201.692L113.034 199.864 111.821 196.813 111.196 194.36 111.821 191.309 113.034 188.872 114.872 187.044 117.924 185.196H119.153L122.793 186.419 125.256 187.648 127.073 189.476 127.683 193.152V195.579L127.073 198.031 124.626 200.458 123.392 201.692V232.842H154.563L156.401 230.405 159.452 228.577H164.951L167.398 230.405 171.075 235.295V237.117L170.45 240.179 168.612 242.627 166.164 244.454 163.113 245.688H160.686L157.635 244.454 155.796 242.007 154.568 241.398H123.397V271.949L125.86 274.381 127.683 276.229V282.941L125.86 284.769 123.397 286.597 120.97 287.831H116.076L114.237 285.993 111.811 284.175 111.186 281.108V278.067L111.811 275.615 114.237 273.183 114.862 271.959V241.408H84.311ZM84.92 424.668H153.364V381.307L152.755 372.137 150.308 362.373 147.256 353.208 142.971 344.648 136.847 336.712 130.135 329.999 122.798 323.886 119.158 322.038H119.747L111.821 327.547 104.484 334.259 97.756 342.195 92.867 350.157 89.206 358.702 86.758 368.492 85.53 378.255 84.92 381.312V424.668Z"/></svg>
